!!!OTL: Alter Reihen um das erste Veilchen
!!!ARE: Europa, Mitteleuropa, Deutschland
!!!SCT: A0280B
!!!YEM: Copyright 1995, estate of Helmut Schaffrath.
**kern
*ICvox
*Ivox
*M4/4
*k[b-e-]
*g:
{4g
=1
2g
4g
4g
=2
2f#
4f#
4f#
=3
4g
4b-
4a
4g
=4
2f#
4r}
{4g
=5
2g
4g
4g
=6
2f#
4f#
4f#
=7
4g
4b-
4a
4g
=8
2f#
4r}
{4b-
=9
4b-
4b-
4b-
4b-
=10
2a
4a
4a
=11
4g
4g
4f#
4f#
=12
2.g}
==
!!!AGN: Romanze, Ballade, Lied
!! Praetorius Mus. Sion. VIII 1610 No. 264
!!!ONB: ESAC (Essen Associative Code) Database: ALTDEU
!!!AMT: simple quadruple
!!!AIN: vox
!!!EED: Helmut Schaffrath
!!!EEV: 1.0
*-
